X:1
T:’Mid Scenes of Confusion
T:’Mid Scenes of Confusion
T:Henry Rowley Bishop, 1829
T:David Denham, 1826
T:Public Domain Courtesy of the Cyber Hymnal™
C:Henry Rowley Bishop, 1829
Z:Public Domain
Z:Courtesy of the Cyber Hymnal™
%%score ( 1 2 ) ( 3 4 )
L:1/8
Q:1/4=90
M:2/4
K:Eb
V:1 treble 
V:2 treble 
V:3 bass 
V:4 bass 
V:1
 E | [EG]2 [FA][Ac] | [GB]2 [EG][GB] | ([FA]>[EG]) [FA][DF] | [EG]3 E | [EG]2 [FA][Ac] | %6
w: 1.~’Mid|scenes of con-|fu- sion and|crea- * ture com-|plaint, How|sweet to the|
w: 2.~Sweet|bonds that u-|nite all the|child- * ren of|peace! And|thrice pre- cious|
w: 3.~While|here in the|val- ley of|con- * flict I|stay, O|give me sub-|
w: 4.~I|long, dear- est|Lord, in Thy|beau- * ties to|shine; No|more as an|
 [GB]2 [EG][GB] | ([FA]>[EG]) [FA][DF] | E3 [GB] | ([Ge]>[Bd]) [Ac][GB] | [GB]2 [EG][GB] | %11
w: soul is com-|mun- * ion with|saints; To|find * at the|ban- quet of|
w: Je- sus, whose|love * can- not|cease! Tho’|oft * from Thy|pre- sence in|
w: mis- sion, and|strength * as my|day; In|all * my af-|flict- ions to|
w: ex- ile in|sor- * row to|pine; And|in * Thy dear|im- age a-|
 ([FA]>[EG]) [FA][DF] | [EG]3 [GB] | ([Ge]>[Bd]) [Ac][GB] | [GB]2 [EG][GB] | ([FA]>[EG]) [FA][DF] | %16
w: mer- * cy there’s|room, And|feel * in the|pre- sence of|Je- * sus at|
w: sad- * ness I|roam, I|long * to be-|hold Thee in|glo- * ry at|
w: Thee * would I|come, Re-|joic- * ing in|hope of my|glor- * i- ous|
w: rie * from the|tomb, With|glor- * i- fied|mil- lions to|praise * Thee at|
 E3 z ||"^Refrain" [EB]4 | (A2 F2) | !fermata!E2 !fermata![DF]2 | !fermata![EG]3 [GB] | %21
w: home!|||||
w: home.|Home,|home, *|sweet, sweet|home; Pre-|
w: home.|||||
w: home.|||||
 ([Ge]>[Bd]) [Ac][GB] | [GB]2 [EG][GB] | ([FA]>[EG]) [FA][DF] | E3 |] %25
w: ||||
w: pare * me dear|Sav- ior, for|Heav- * en, my|home.|
w: ||||
w: ||||
V:2
 E | x4 | x4 | x4 | x3 E | x4 | x4 | x4 | E3 x | x4 | x4 | x4 | x4 | x4 | x4 | x4 | E3 x || x4 | %18
 D4 | E2 x2 | x4 | x4 | x4 | x4 | E3 |] %25
V:3
 [E,G,] | [E,B,]2 [E,B,][E,D] | [E,E]2 [E,B,][E,B,] | [B,,B,]2 [B,,B,][B,,B,] | [E,B,]3 [E,G,] | %5
 [E,B,]2 [E,B,][E,D] | [E,E]2 [E,B,][E,B,] | [B,,B,]2 [B,,B,][B,,A,] | [E,G,]3 [E,B,] | %9
 [E,B,]2 [E,E][E,E] | [E,E]2 [E,B,][E,B,] | [B,,B,]2 [B,,B,][B,,B,] | [E,B,]3 [E,B,] | %13
 [E,B,]2 [E,E][E,E] | [E,E]2 [E,B,][E,B,] | [B,,B,]2 [B,,B,][B,,A,] | [E,G,]3 z || [E,G,]4 | %18
 F,2 A,2 | !fermata![C,G,]2 !fermata![B,,B,]2 | !fermata![E,B,]3 [E,B,] | [E,B,]2 [E,E][E,E] | %22
 [E,E]2 [E,B,][E,B,] | [B,,B,]2 [B,,B,][B,,A,] | [E,G,]3 |] %25
V:4
 x | x4 | x4 | x4 | x4 | x4 | x4 | x4 | x4 | x4 | x4 | x4 | x4 | x4 | x4 | x4 | x4 || x4 | B,,4 | %19
 x4 | x4 | x4 | x4 | x4 | x3 |] %25

